static/icons/960.svg

<svg height="50" viewBox="0 0 13.229166 13.229167" width="50" xmlns="http://www.w3.org/2000/svg"><path d="m12.203125 5c-3.9906781 0-7.203125 3.2124352-7.203125 7.203125v25.59375c0 3.99069 3.2124469 7.203125 7.203125 7.203125h25.59375c3.990678 0 7.203125-3.212435 7.203125-7.203125v-25.59375c0-3.9906898-3.212447-7.203125-7.203125-7.203125zm23.220703 3.5175781a4.9999998 4.9999737 0 0 1 5 4.9999999 4.9999998 4.9999737 0 0 1 -5 5 4.9999998 4.9999737 0 0 1 -5-5 4.9999998 4.9999737 0 0 1 5-4.9999999zm-21.228516.2539063a4.9999998 4.9999737 0 0 1 5 4.9999996 4.9999998 4.9999737 0 0 1 -5 5 4.9999998 4.9999737 0 0 1 -4.9999995-5 4.9999998 4.9999737 0 0 1 4.9999995-4.9999996zm21.228516 10.7460936a4.9999998 4.9999737 0 0 1 5 5 4.9999998 4.9999737 0 0 1 -5 5 4.9999998 4.9999737 0 0 1 -5-5 4.9999998 4.9999737 0 0 1 5-5zm-21.228516.253906a4.9999998 4.9999737 0 0 1 5 5 4.9999998 4.9999737 0 0 1 -5 5 4.9999998 4.9999737 0 0 1 -4.9999995-5 4.9999998 4.9999737 0 0 1 4.9999995-5zm21.228516 10.746094a4.9999998 4.9999737 0 0 1 5 5 4.9999998 4.9999737 0 0 1 -5 5 4.9999998 4.9999737 0 0 1 -5-5 4.9999998 4.9999737 0 0 1 5-5zm-21.228516.253906a4.9999998 4.9999737 0 0 1 5 5 4.9999998 4.9999737 0 0 1 -5 5 4.9999998 4.9999737 0 0 1 -4.9999995-5 4.9999998 4.9999737 0 0 1 4.9999995-5z" fill="#70787d" fill-opacity=".992157" transform="scale(.26458333)"/></svg>

<?xml version="1.0" encoding="UTF-8" standalone="no"?>
<svg
   xmlns:dc="http://purl.org/dc/elements/1.1/"
   xmlns:cc="http://creativecommons.org/ns#"
   xmlns:rdf="http://www.w3.org/1999/02/22-rdf-syntax-ns#"
   xmlns:svg="http://www.w3.org/2000/svg"
   xmlns="http://www.w3.org/2000/svg"
   xmlns:sodipodi="http://sodipodi.sourceforge.net/DTD/sodipodi-0.dtd"
   xmlns:inkscape="http://www.inkscape.org/namespaces/inkscape"
   inkscape:version="1.0.1 (3bc2e813f5, 2020-09-07)"
   sodipodi:docname="960.svg"
   id="svg1579"
   version="1.1"
   viewBox="0 0 13.229166 13.229167"
   height="50"
   width="50">
  <metadata
     id="metadata14">
    <rdf:RDF>
      <cc:Work
         rdf:about="">
        <dc:format>image/svg+xml</dc:format>
        <dc:type
           rdf:resource="http://purl.org/dc/dcmitype/StillImage" />
        <dc:title></dc:title>
      </cc:Work>
    </rdf:RDF>
  </metadata>
  <defs
     id="defs12" />
  <sodipodi:namedview
     inkscape:current-layer="layer1"
     inkscape:window-maximized="1"
     inkscape:window-y="-12"
     inkscape:window-x="-12"
     inkscape:cy="-19.044882"
     inkscape:cx="-54.390074"
     inkscape:zoom="3.337544"
     showgrid="true"
     id="namedview10"
     inkscape:window-height="2050"
     inkscape:window-width="3840"
     inkscape:pageshadow="2"
     inkscape:pageopacity="0"
     guidetolerance="10"
     gridtolerance="10"
     objecttolerance="10"
     borderopacity="1"
     bordercolor="#666666"
     pagecolor="#ffffff"
     inkscape:document-rotation="0">
    <inkscape:grid
       type="xygrid"
       id="grid821" />
  </sodipodi:namedview>
  <g
     id="layer1"
     transform="translate(0,-283.77082)">
    <path
       id="rect828"
       style="opacity:1;fill:#70787d;fill-opacity:0.99215686;stroke:none;stroke-width:3.78153"
       d="M 12.203125 5 C 8.2124469 5 5 8.2124352 5 12.203125 L 5 37.796875 C 5 41.787565 8.2124469 45 12.203125 45 L 37.796875 45 C 41.787553 45 45 41.787565 45 37.796875 L 45 12.203125 C 45 8.2124352 41.787553 5 37.796875 5 L 12.203125 5 z M 35.423828 8.5175781 A 4.9999998 4.9999737 0 0 1 40.423828 13.517578 A 4.9999998 4.9999737 0 0 1 35.423828 18.517578 A 4.9999998 4.9999737 0 0 1 30.423828 13.517578 A 4.9999998 4.9999737 0 0 1 35.423828 8.5175781 z M 14.195312 8.7714844 A 4.9999998 4.9999737 0 0 1 19.195312 13.771484 A 4.9999998 4.9999737 0 0 1 14.195312 18.771484 A 4.9999998 4.9999737 0 0 1 9.1953125 13.771484 A 4.9999998 4.9999737 0 0 1 14.195312 8.7714844 z M 35.423828 19.517578 A 4.9999998 4.9999737 0 0 1 40.423828 24.517578 A 4.9999998 4.9999737 0 0 1 35.423828 29.517578 A 4.9999998 4.9999737 0 0 1 30.423828 24.517578 A 4.9999998 4.9999737 0 0 1 35.423828 19.517578 z M 14.195312 19.771484 A 4.9999998 4.9999737 0 0 1 19.195312 24.771484 A 4.9999998 4.9999737 0 0 1 14.195312 29.771484 A 4.9999998 4.9999737 0 0 1 9.1953125 24.771484 A 4.9999998 4.9999737 0 0 1 14.195312 19.771484 z M 35.423828 30.517578 A 4.9999998 4.9999737 0 0 1 40.423828 35.517578 A 4.9999998 4.9999737 0 0 1 35.423828 40.517578 A 4.9999998 4.9999737 0 0 1 30.423828 35.517578 A 4.9999998 4.9999737 0 0 1 35.423828 30.517578 z M 14.195312 30.771484 A 4.9999998 4.9999737 0 0 1 19.195312 35.771484 A 4.9999998 4.9999737 0 0 1 14.195312 40.771484 A 4.9999998 4.9999737 0 0 1 9.1953125 35.771484 A 4.9999998 4.9999737 0 0 1 14.195312 30.771484 z "
       transform="matrix(0.26458333,0,0,0.26458333,0,283.77082)" />
  </g>
</svg>
